src/assets/icons/icon-gear.svg

<svg width="494" height="494" viewBox="0 0 494 494" fill="none" xmlns="http://www.w3.org/2000/svg">
<path d="M212.52 0.602001L195.543 60.454C179.984 64.7392 165.168 70.845 151.441 78.653L97.0149 48.38L48.3669 97.028L78.6399 151.454C70.8313 165.181 64.7259 179.993 60.4409 195.556L0.588867 212.533V281.482L60.4409 298.459C64.7261 314.018 70.8319 328.834 78.6399 342.561L48.3669 396.987L97.0149 445.635L151.441 415.362C165.168 423.171 179.98 429.276 195.543 433.561L212.52 493.413H281.469L298.446 433.561C314.005 429.276 328.821 423.17 342.548 415.362L396.974 445.635L445.622 396.987L415.349 342.561C423.157 328.834 429.263 314.022 433.548 298.459L493.396 281.479V212.53L433.544 195.553C429.259 179.994 423.153 165.178 415.345 151.451L445.618 97.025L396.97 48.377L342.544 78.65C328.817 70.8414 314.005 64.736 298.442 60.451L281.465 0.598999H212.516L212.52 0.602001ZM246.997 123.802C314.841 123.802 370.197 179.161 370.197 247.002C370.197 314.846 314.838 370.202 246.997 370.202C179.153 370.202 123.797 314.843 123.797 247.002C123.797 179.158 179.156 123.802 246.997 123.802V123.802ZM246.997 157.404C197.313 157.404 157.395 197.322 157.395 247.006C157.395 296.69 197.313 336.608 246.997 336.608C296.681 336.608 336.599 296.69 336.599 247.006C336.599 197.322 296.681 157.404 246.997 157.404V157.404Z" fill="black"/>
</svg>

<svg width="494" height="494" fill="none" xmlns="http://www.w3.org/2000/svg"><path d="m212.52.602-16.977 59.852c-15.559 4.285-30.375 10.391-44.102 18.199L97.015 48.38 48.367 97.028l30.273 54.426c-7.809 13.727-13.914 28.539-18.2 44.102L.59 212.533v68.949l59.852 16.977c4.285 15.559 10.39 30.375 18.199 44.102l-30.273 54.426 48.648 48.648 54.426-30.273c13.727 7.809 28.539 13.914 44.102 18.199l16.977 59.852h68.949l16.977-59.852c15.559-4.285 30.375-10.391 44.102-18.199l54.426 30.273 48.648-48.648-30.273-54.426c7.808-13.727 13.914-28.539 18.199-44.102l59.848-16.98V212.53l-59.852-16.977c-4.285-15.559-10.391-30.375-18.199-44.102l30.273-54.426-48.648-48.648-54.426 30.273c-13.727-7.809-28.539-13.914-44.102-18.199L281.465.599h-68.949l.004.003Zm34.477 123.2c67.844 0 123.2 55.359 123.2 123.2 0 67.844-55.359 123.2-123.2 123.2-67.844 0-123.2-55.359-123.2-123.2 0-67.844 55.359-123.2 123.2-123.2Zm0 33.602c-49.684 0-89.602 39.918-89.602 89.602 0 49.684 39.918 89.602 89.602 89.602 49.684 0 89.602-39.918 89.602-89.602 0-49.684-39.918-89.602-89.602-89.602Z" fill="#000"/></svg>
